svgs/sharp-solid/hexagon-exclamation.svg

<svg xmlns="http://www.w3.org/2000/svg" viewBox="0 0 512 512"><!--! Font Awesome Pro 6.6.0 by @fontawesome - https://fontawesome.com License - https://fontawesome.com/license (Commercial License) Copyright 2024 Fonticons, Inc. --><path d="M0 256L128 32l256 0L512 256 384 480l-256 0L0 256zM280 128l-48 0 0 24 0 112 0 24 48 0 0-24 0-112 0-24zM232 320l0 48 48 0 0-48-48 0z"/></svg>

<svg xmlns="http://www.w3.org/2000/svg" viewBox="0 0 512 512"><!--! Font Awesome Pro 6.4.2 by @fontawesome - https://fontawesome.com License - https://fontawesome.com/license (Commercial License) Copyright 2023 Fonticons, Inc. --><path d="M0 256L128 32H384L512 256 384 480H128L0 256zM280 128H232v24V264v24h48V264 152 128zM232 320v48h48V320H232z"/></svg>
